X:1
T:Bal de Sarzeau
C:Bal traditionnel Vannetais, fichier abc : Bernard Loffet
L:1/8
Q:350
K:C
M:3/8
|: [G2G,,2][BG,] | [d2G,,2][dG,] | [cC,,]d[cC,] | [B2D,,2][AD,] | [G2G,,2][BG,] | \
 [d2C,,2][dC,] | [cD,,]d[cD,] | [B2G,,2]G, :| [BG,,]c[AG,] | [B2G,,2][BG,] | [BD,,]c[AD,] | \
 [B2G,,2]G, | [G2G,,2][BG,] | [d2C,,2][dC,] | [cD,,]d[cD,] | [B2G,,2][BG,] | [BG,,]c[AG,] | \
 [B2G,,2][BG,] | [BD,,]c[AD,] | [B2G,,2]G, | [G2G,,2][BG,] | [d2C,,2][dC,] | [cD,,]B[AD,] | \
 [G2G,,2]G, | \
W:Created with TablEdit http://www.tabledit.com/ by Bernard Loffet
